!!!ONR: No. 23
!! From Harold Courlander, "Haiti Singing"
!! Chapel Hill: University of North Carolina Press, 1939
!! Copyright University of North Carolina Press
!!!ENC: D. Huron
**kern
*clefG2
*k[b-]
*M2/4
=1-
12g
12g
12g
4g
=
12b-
12b-
12g
4d
=
12b-
12b-
12b-
4b-
=
12dd
12dd
12b-
4g
=
16f
8e
16d
8c
8f
=
16d
8e
16c
8d
[8d
=
8d]
8r
4r
==
*-
